_assets/img/case-studies/cangetthestaff/cgts-logo.svg

<svg width="372" height="44" viewBox="0 0 372 44" xmlns="http://www.w3.org/2000/svg"><g fill="none" fill-rule="evenodd"><path d="M17.877 25.189l6.862 1.494c-.592 2.738-1.992 4.947-4.201 6.627-2.21 1.681-4.792 2.521-7.748 2.521-3.579 0-6.605-1.159-9.079-3.478C1.237 30.035 0 27.056 0 23.415c0-3.61 1.237-6.582 3.711-8.915 2.474-2.334 5.5-3.501 9.079-3.501 2.893 0 5.445.825 7.654 2.474 2.21 1.649 3.641 3.827 4.295 6.535l-7.002 1.68c-.311-1.369-.903-2.404-1.774-3.104-.871-.7-1.929-1.05-3.173-1.05-1.681 0-3.035.552-4.061 1.657-1.027 1.104-1.541 2.513-1.541 4.224 0 1.743.514 3.158 1.541 4.248 1.026 1.089 2.38 1.634 4.061 1.634 2.613 0 4.309-1.369 5.087-4.108m25.979 2.59c1.136-1.136 1.704-2.59 1.704-4.364 0-1.743-.568-3.189-1.704-4.341-1.136-1.151-2.482-1.727-4.038-1.727-1.649 0-3.003.568-4.061 1.704-1.058 1.135-1.587 2.59-1.587 4.364 0 1.805.529 3.268 1.587 4.388 1.058 1.12 2.412 1.68 4.061 1.68 1.556 0 2.902-.568 4.038-1.704zm9.172 7.352H45.56v-1.867c-1.899 1.712-4.326 2.567-7.282 2.567-3.174 0-5.874-1.159-8.098-3.478-2.225-2.318-3.338-5.297-3.338-8.938 0-3.61 1.113-6.582 3.338-8.915 2.224-2.334 4.924-3.501 8.098-3.501 2.956 0 5.383.856 7.282 2.567v-1.867h7.468v23.432zm23.785-21.448c1.665 1.789 2.497 4.147 2.497 7.071v14.377h-7.421V22.342c0-1.37-.373-2.482-1.12-3.338-.748-.856-1.712-1.283-2.895-1.283-1.524 0-2.714.536-3.57 1.61-.856 1.073-1.284 2.715-1.284 4.925v10.875h-7.468V11.699h7.468v2.24c1.867-1.96 4.263-2.94 7.188-2.94 2.739 0 4.94.894 6.605 2.684" fill="#FFF"/><path d="M110.449 26.145c1.058-1.01 1.587-2.294 1.587-3.85 0-1.525-.529-2.793-1.587-3.804-1.058-1.012-2.35-1.517-3.874-1.517-1.65 0-2.995.498-4.038 1.493-1.042.996-1.564 2.272-1.564 3.828s.529 2.84 1.588 3.85c1.057 1.012 2.396 1.518 4.014 1.518 1.524 0 2.816-.506 3.874-1.518zm8.915 6.652c0 3.516-1.206 6.263-3.617 8.239-2.412 1.976-5.579 2.964-9.499 2.964-5.57 0-9.491-1.883-11.763-5.649l6.208-3.36c.903 1.089 1.751 1.844 2.544 2.264.794.42 1.782.63 2.964.63 1.743 0 3.151-.498 4.224-1.493 1.074-.997 1.611-2.397 1.611-4.202v-.653c-1.743 1.493-4.092 2.24-7.048 2.24-3.112 0-5.773-1.096-7.982-3.291-2.21-2.193-3.314-4.924-3.314-8.191 0-3.205 1.104-5.889 3.314-8.052 2.209-2.163 4.87-3.244 7.982-3.244 2.956 0 5.305.747 7.048 2.241v-1.541h7.328v21.098zm11.673-14.75c-.934.654-1.572 1.556-1.914 2.707h9.662c-.342-1.213-.933-2.131-1.774-2.754-.84-.622-1.82-.933-2.94-.933-1.09 0-2.101.326-3.034.98zm15.123 7.282h-17.177c.311 1.4.918 2.505 1.82 3.314.903.809 1.976 1.213 3.221 1.213 2.334 0 3.998-.902 4.995-2.707l6.627 1.354c-.995 2.428-2.497 4.256-4.504 5.484-2.007 1.23-4.38 1.844-7.118 1.844-3.454 0-6.379-1.159-8.775-3.478-2.396-2.318-3.594-5.297-3.594-8.938 0-3.61 1.198-6.582 3.594-8.915 2.396-2.334 5.336-3.501 8.822-3.501 3.391 0 6.239 1.136 8.541 3.407 2.303 2.272 3.486 5.275 3.548 9.009v1.914zm21.241 8.775c-2.147 1.152-4.278 1.727-6.394 1.727-2.956 0-5.251-.793-6.885-2.38-1.634-1.588-2.451-3.905-2.451-6.955v-8.869h-4.247v-5.928h4.247V4.791h7.469v6.908h6.908v5.928h-6.908v8.122c0 2.271 1.042 3.407 3.127 3.407 1.183 0 2.318-.31 3.407-.933l1.727 5.881m31.044 0c-2.147 1.152-4.278 1.727-6.394 1.727-2.956 0-5.251-.793-6.885-2.38-1.634-1.588-2.451-3.905-2.451-6.955v-8.869h-4.247v-5.928h4.247V4.791h7.469v6.908h6.908v5.928h-6.908v8.122c0 2.271 1.042 3.407 3.127 3.407 1.183 0 2.318-.31 3.407-.933l1.727 5.881m23.738-20.421c1.665 1.789 2.498 4.147 2.498 7.071v14.377h-7.422V22.342c0-1.37-.373-2.482-1.12-3.338-.747-.856-1.727-1.283-2.941-1.283-1.493 0-2.668.544-3.524 1.633-.856 1.089-1.284 2.723-1.284 4.902v10.875h-7.468V1.523h7.468v12.416c1.899-1.96 4.31-2.94 7.235-2.94 2.708 0 4.894.894 6.558 2.684m14.357 4.364c-.934.654-1.572 1.556-1.914 2.707h9.662c-.342-1.213-.934-2.131-1.774-2.754-.84-.622-1.82-.933-2.94-.933-1.09 0-2.101.326-3.034.98zm15.123 7.282h-17.177c.311 1.4.918 2.505 1.82 3.314.902.809 1.976 1.213 3.221 1.213 2.334 0 3.998-.902 4.994-2.707l6.628 1.354c-.995 2.428-2.497 4.256-4.504 5.484-2.007 1.23-4.38 1.844-7.118 1.844-3.454 0-6.379-1.159-8.775-3.478-2.397-2.318-3.594-5.297-3.594-8.938 0-3.61 1.197-6.582 3.594-8.915 2.396-2.334 5.336-3.501 8.822-3.501 3.391 0 6.239 1.136 8.541 3.407 2.303 2.272 3.486 5.275 3.548 9.009v1.914zm20.402 2.193c.311 1.836 1.696 2.754 4.155 2.754.933 0 1.672-.178 2.217-.536.544-.358.816-.802.816-1.331 0-.871-.777-1.446-2.333-1.726l-4.761-.934c-4.543-.84-6.815-3.111-6.815-6.815 0-2.396.933-4.317 2.801-5.765 1.867-1.446 4.294-2.17 7.281-2.17 2.863 0 5.236.607 7.118 1.82 1.883 1.214 3.058 2.847 3.524 4.902l-6.815 1.353c-.124-.778-.536-1.431-1.236-1.96-.701-.53-1.595-.794-2.684-.794-.934 0-1.611.179-2.031.537-.42.358-.63.786-.63 1.284 0 .84.591 1.384 1.774 1.633l5.508 1.12c2.147.467 3.765 1.315 4.854 2.544 1.089 1.23 1.634 2.731 1.634 4.505 0 2.521-.981 4.465-2.941 5.834-1.96 1.369-4.527 2.054-7.702 2.054-2.956 0-5.437-.567-7.445-1.703-2.006-1.136-3.197-2.84-3.57-5.111l7.281-1.495m36.178 6.582c-2.147 1.152-4.278 1.727-6.394 1.727-2.956 0-5.251-.793-6.885-2.38-1.634-1.588-2.451-3.905-2.451-6.955v-8.869h-4.247v-5.928h4.247V4.791h7.468v6.908h6.909v5.928h-6.909v8.122c0 2.271 1.043 3.407 3.128 3.407 1.183 0 2.318-.31 3.407-.933l1.727 5.881m17.39-6.325c1.136-1.136 1.704-2.59 1.704-4.364 0-1.743-.568-3.189-1.704-4.341-1.135-1.151-2.482-1.727-4.037-1.727-1.65 0-3.003.568-4.061 1.704-1.058 1.135-1.587 2.59-1.587 4.364 0 1.805.529 3.268 1.587 4.388 1.058 1.12 2.411 1.68 4.061 1.68 1.555 0 2.902-.568 4.037-1.704zm9.172 7.352h-7.468v-1.867c-1.899 1.712-4.325 2.567-7.282 2.567-3.174 0-5.873-1.159-8.098-3.478-2.225-2.318-3.337-5.297-3.337-8.938 0-3.61 1.112-6.582 3.337-8.915 2.225-2.334 4.924-3.501 8.098-3.501 2.957 0 5.383.856 7.282 2.567v-1.867h7.468v23.432zm19.702-23.432v5.928h-6.442v17.504h-7.421V17.627h-3.361v-5.928h3.361v-1.82c0-2.738.863-4.924 2.59-6.558 1.727-1.634 4.007-2.451 6.839-2.451 1.587 0 3.127.327 4.62.981l-1.587 5.787c-.746-.249-1.416-.373-2.006-.373-.903 0-1.634.264-2.194.794-.56.528-.841 1.244-.841 2.147v1.493h6.442" fill="#000F10"/><path d="M371.36 11.699v5.928h-6.441v17.504h-7.422V17.627h-3.361v-5.928h3.361v-1.82c0-2.738.863-4.924 2.591-6.558 1.726-1.634 4.006-2.451 6.838-2.451 1.587 0 3.127.327 4.621.981l-1.587 5.787c-.747-.249-1.416-.373-2.008-.373-.902 0-1.634.264-2.193.794-.561.528-.84 1.244-.84 2.147v1.493h6.441" fill="#000F10"/></g></svg>

<svg width="372px" height="44px" viewBox="0 0 372 44" version="1.1" xmlns="http://www.w3.org/2000/svg" xmlns:xlink="http://www.w3.org/1999/xlink">
    <!-- Generator: Sketch 47.1 (45422) - http://www.bohemiancoding.com/sketch -->
    <desc>Created with Sketch.</desc>
    <defs></defs>
    <g id="Page-1" stroke="none" stroke-width="1" fill="none" fill-rule="evenodd">
        <g id="CanGetTheStaff_RGB_Primary">
            <path d="M17.877,25.189 L24.739,26.683 C24.147,29.421 22.747,31.63 20.538,33.31 C18.328,34.991 15.746,35.831 12.79,35.831 C9.211,35.831 6.185,34.672 3.711,32.353 C1.237,30.035 0,27.056 0,23.415 C0,19.805 1.237,16.833 3.711,14.5 C6.185,12.166 9.211,10.999 12.79,10.999 C15.683,10.999 18.235,11.824 20.444,13.473 C22.654,15.122 24.085,17.3 24.739,20.008 L17.737,21.688 C17.426,20.319 16.834,19.284 15.963,18.584 C15.092,17.884 14.034,17.534 12.79,17.534 C11.109,17.534 9.755,18.086 8.729,19.191 C7.702,20.295 7.188,21.704 7.188,23.415 C7.188,25.158 7.702,26.573 8.729,27.663 C9.755,28.752 11.109,29.297 12.79,29.297 C15.403,29.297 17.099,27.928 17.877,25.189" id="Fill-1" fill="#FFFFFF"></path>
            <path d="M43.856,27.779 C44.992,26.643 45.56,25.189 45.56,23.415 C45.56,21.672 44.992,20.226 43.856,19.074 C42.72,17.923 41.374,17.347 39.818,17.347 C38.169,17.347 36.815,17.915 35.757,19.051 C34.699,20.186 34.17,21.641 34.17,23.415 C34.17,25.22 34.699,26.683 35.757,27.803 C36.815,28.923 38.169,29.483 39.818,29.483 C41.374,29.483 42.72,28.915 43.856,27.779 Z M53.028,35.131 L45.56,35.131 L45.56,33.264 C43.661,34.976 41.234,35.831 38.278,35.831 C35.104,35.831 32.404,34.672 30.18,32.353 C27.955,30.035 26.842,27.056 26.842,23.415 C26.842,19.805 27.955,16.833 30.18,14.5 C32.404,12.166 35.104,10.999 38.278,10.999 C41.234,10.999 43.661,11.855 45.56,13.566 L45.56,11.699 L53.028,11.699 L53.028,35.131 L53.028,35.131 Z" id="Fill-2" fill="#FFFFFF"></path>
            <path d="M76.813,13.683 C78.478,15.472 79.31,17.83 79.31,20.754 L79.31,35.131 L71.889,35.131 L71.889,22.342 C71.889,20.972 71.516,19.86 70.769,19.004 C70.021,18.148 69.057,17.721 67.874,17.721 C66.35,17.721 65.16,18.257 64.304,19.331 C63.448,20.404 63.02,22.046 63.02,24.256 L63.02,35.131 L55.552,35.131 L55.552,11.699 L63.02,11.699 L63.02,13.939 C64.887,11.979 67.283,10.999 70.208,10.999 C72.947,10.999 75.148,11.893 76.813,13.683" id="Fill-3" fill="#FFFFFF"></path>
            <path d="M110.449,26.145 C111.507,25.135 112.036,23.851 112.036,22.295 C112.036,20.77 111.507,19.502 110.449,18.491 C109.391,17.479 108.099,16.974 106.575,16.974 C104.925,16.974 103.58,17.472 102.537,18.467 C101.495,19.463 100.973,20.739 100.973,22.295 C100.973,23.851 101.502,25.135 102.561,26.145 C103.618,27.157 104.957,27.663 106.575,27.663 C108.099,27.663 109.391,27.157 110.449,26.145 Z M119.364,32.797 C119.364,36.313 118.158,39.06 115.747,41.036 C113.335,43.012 110.168,44 106.248,44 C100.678,44 96.757,42.117 94.485,38.351 L100.693,34.991 C101.596,36.08 102.444,36.835 103.237,37.255 C104.031,37.675 105.019,37.885 106.201,37.885 C107.944,37.885 109.352,37.387 110.425,36.392 C111.499,35.395 112.036,33.995 112.036,32.19 L112.036,31.537 C110.293,33.03 107.944,33.777 104.988,33.777 C101.876,33.777 99.215,32.681 97.006,30.486 C94.796,28.293 93.692,25.562 93.692,22.295 C93.692,19.09 94.796,16.406 97.006,14.243 C99.215,12.08 101.876,10.999 104.988,10.999 C107.944,10.999 110.293,11.746 112.036,13.24 L112.036,11.699 L119.364,11.699 L119.364,32.797 L119.364,32.797 Z" id="Fill-4" fill="#000F10"></path>
            <path d="M131.037,18.047 C130.103,18.701 129.465,19.603 129.123,20.754 L138.785,20.754 C138.443,19.541 137.852,18.623 137.011,18 C136.171,17.378 135.191,17.067 134.071,17.067 C132.981,17.067 131.97,17.393 131.037,18.047 Z M146.16,25.329 L128.983,25.329 C129.294,26.729 129.901,27.834 130.803,28.643 C131.706,29.452 132.779,29.856 134.024,29.856 C136.358,29.856 138.022,28.954 139.019,27.149 L145.646,28.503 C144.651,30.931 143.149,32.759 141.142,33.987 C139.135,35.217 136.762,35.831 134.024,35.831 C130.57,35.831 127.645,34.672 125.249,32.353 C122.853,30.035 121.655,27.056 121.655,23.415 C121.655,19.805 122.853,16.833 125.249,14.5 C127.645,12.166 130.585,10.999 134.071,10.999 C137.462,10.999 140.31,12.135 142.612,14.406 C144.915,16.678 146.098,19.681 146.16,23.415 L146.16,25.329 L146.16,25.329 Z" id="Fill-5" fill="#000F10"></path>
            <path d="M167.401,34.104 C165.254,35.256 163.123,35.831 161.007,35.831 C158.051,35.831 155.756,35.038 154.122,33.451 C152.488,31.863 151.671,29.546 151.671,26.496 L151.671,17.627 L147.424,17.627 L147.424,11.699 L151.671,11.699 L151.671,4.791 L159.14,4.791 L159.14,11.699 L166.048,11.699 L166.048,17.627 L159.14,17.627 L159.14,25.749 C159.14,28.02 160.182,29.156 162.267,29.156 C163.45,29.156 164.585,28.846 165.674,28.223 L167.401,34.104" id="Fill-6" fill="#000F10"></path>
            <path d="M198.445,34.104 C196.298,35.256 194.167,35.831 192.051,35.831 C189.095,35.831 186.8,35.038 185.166,33.451 C183.532,31.863 182.715,29.546 182.715,26.496 L182.715,17.627 L178.468,17.627 L178.468,11.699 L182.715,11.699 L182.715,4.791 L190.184,4.791 L190.184,11.699 L197.092,11.699 L197.092,17.627 L190.184,17.627 L190.184,25.749 C190.184,28.02 191.226,29.156 193.311,29.156 C194.494,29.156 195.629,28.846 196.718,28.223 L198.445,34.104" id="Fill-7" fill="#000F10"></path>
            <path d="M222.183,13.683 C223.848,15.472 224.681,17.83 224.681,20.754 L224.681,35.131 L217.259,35.131 L217.259,22.342 C217.259,20.972 216.886,19.86 216.139,19.004 C215.392,18.148 214.412,17.721 213.198,17.721 C211.705,17.721 210.53,18.265 209.674,19.354 C208.818,20.443 208.39,22.077 208.39,24.256 L208.39,35.131 L200.922,35.131 L200.922,1.523 L208.39,1.523 L208.39,13.939 C210.289,11.979 212.7,10.999 215.625,10.999 C218.333,10.999 220.519,11.893 222.183,13.683" id="Fill-8" fill="#000F10"></path>
            <path d="M236.54,18.047 C235.606,18.701 234.968,19.603 234.626,20.754 L244.288,20.754 C243.946,19.541 243.354,18.623 242.514,18 C241.674,17.378 240.694,17.067 239.574,17.067 C238.484,17.067 237.473,17.393 236.54,18.047 Z M251.663,25.329 L234.486,25.329 C234.797,26.729 235.404,27.834 236.306,28.643 C237.208,29.452 238.282,29.856 239.527,29.856 C241.861,29.856 243.525,28.954 244.521,27.149 L251.149,28.503 C250.154,30.931 248.652,32.759 246.645,33.987 C244.638,35.217 242.265,35.831 239.527,35.831 C236.073,35.831 233.148,34.672 230.752,32.353 C228.355,30.035 227.158,27.056 227.158,23.415 C227.158,19.805 228.355,16.833 230.752,14.5 C233.148,12.166 236.088,10.999 239.574,10.999 C242.965,10.999 245.813,12.135 248.115,14.406 C250.418,16.678 251.601,19.681 251.663,23.415 L251.663,25.329 L251.663,25.329 Z" id="Fill-9" fill="#000F10"></path>
            <path d="M272.065,27.522 C272.376,29.358 273.761,30.276 276.22,30.276 C277.153,30.276 277.892,30.098 278.437,29.74 C278.981,29.382 279.253,28.938 279.253,28.409 C279.253,27.538 278.476,26.963 276.92,26.683 L272.159,25.749 C267.616,24.909 265.344,22.638 265.344,18.934 C265.344,16.538 266.277,14.617 268.145,13.169 C270.012,11.723 272.439,10.999 275.426,10.999 C278.289,10.999 280.662,11.606 282.544,12.819 C284.427,14.033 285.602,15.666 286.068,17.721 L279.253,19.074 C279.129,18.296 278.717,17.643 278.017,17.114 C277.316,16.584 276.422,16.32 275.333,16.32 C274.399,16.32 273.722,16.499 273.302,16.857 C272.882,17.215 272.672,17.643 272.672,18.141 C272.672,18.981 273.263,19.525 274.446,19.774 L279.954,20.894 C282.101,21.361 283.719,22.209 284.808,23.438 C285.897,24.668 286.442,26.169 286.442,27.943 C286.442,30.464 285.461,32.408 283.501,33.777 C281.541,35.146 278.974,35.831 275.799,35.831 C272.843,35.831 270.362,35.264 268.354,34.128 C266.348,32.992 265.157,31.288 264.784,29.017 L272.065,27.522" id="Fill-10" fill="#000F10"></path>
            <path d="M308.243,34.104 C306.096,35.256 303.965,35.831 301.849,35.831 C298.893,35.831 296.598,35.038 294.964,33.451 C293.33,31.863 292.513,29.546 292.513,26.496 L292.513,17.627 L288.266,17.627 L288.266,11.699 L292.513,11.699 L292.513,4.791 L299.981,4.791 L299.981,11.699 L306.89,11.699 L306.89,17.627 L299.981,17.627 L299.981,25.749 C299.981,28.02 301.024,29.156 303.109,29.156 C304.292,29.156 305.427,28.846 306.516,28.223 L308.243,34.104" id="Fill-11" fill="#000F10"></path>
            <path d="M325.633,27.779 C326.769,26.643 327.337,25.189 327.337,23.415 C327.337,21.672 326.769,20.226 325.633,19.074 C324.498,17.923 323.151,17.347 321.596,17.347 C319.946,17.347 318.593,17.915 317.535,19.051 C316.477,20.186 315.948,21.641 315.948,23.415 C315.948,25.22 316.477,26.683 317.535,27.803 C318.593,28.923 319.946,29.483 321.596,29.483 C323.151,29.483 324.498,28.915 325.633,27.779 Z M334.805,35.131 L327.337,35.131 L327.337,33.264 C325.438,34.976 323.012,35.831 320.055,35.831 C316.881,35.831 314.182,34.672 311.957,32.353 C309.732,30.035 308.62,27.056 308.62,23.415 C308.62,19.805 309.732,16.833 311.957,14.5 C314.182,12.166 316.881,10.999 320.055,10.999 C323.012,10.999 325.438,11.855 327.337,13.566 L327.337,11.699 L334.805,11.699 L334.805,35.131 L334.805,35.131 Z" id="Fill-12" fill="#000F10"></path>
            <path d="M354.507,11.699 L354.507,17.627 L348.065,17.627 L348.065,35.131 L340.644,35.131 L340.644,17.627 L337.283,17.627 L337.283,11.699 L340.644,11.699 L340.644,9.879 C340.644,7.141 341.507,4.955 343.234,3.321 C344.961,1.687 347.241,0.87 350.073,0.87 C351.66,0.87 353.2,1.197 354.693,1.851 L353.106,7.638 C352.36,7.389 351.69,7.265 351.1,7.265 C350.197,7.265 349.466,7.529 348.906,8.059 C348.346,8.587 348.065,9.303 348.065,10.206 L348.065,11.699 L354.507,11.699" id="Fill-13" fill="#000F10"></path>
            <path d="M371.36,11.699 L371.36,17.627 L364.919,17.627 L364.919,35.131 L357.497,35.131 L357.497,17.627 L354.136,17.627 L354.136,11.699 L357.497,11.699 L357.497,9.879 C357.497,7.141 358.36,4.955 360.088,3.321 C361.814,1.687 364.094,0.87 366.926,0.87 C368.513,0.87 370.053,1.197 371.547,1.851 L369.96,7.638 C369.213,7.389 368.544,7.265 367.952,7.265 C367.05,7.265 366.318,7.529 365.759,8.059 C365.198,8.587 364.919,9.303 364.919,10.206 L364.919,11.699 L371.36,11.699" id="Fill-14" fill="#000F10"></path>
        </g>
    </g>
</svg>
